!!!!SEGMENT: pl-kk--kk-i-488_anonim--modlitwa.krn
!!!cenid: 18xx:1355
!!!COM: Anonim
!!!COM-rismID: pe30004985
!!!CDT:
!!!CNT:
!!!OTL: Modlitwa
!!!PDT:
!!!AGN: Sacred
!!!YEC: Copyright 2022 Narodowy Instytut Fryderyka Chopina (https://polishscores.org)
!!!YEM: License CC-BY-4.0 (https://creativecommons.org/licenses/by/4.0)
!!!SMS-siglum: PL-Kk
!!!SMS-shelfmark: Kk.I.488
!!!SMS-shelfwork: W
!!!SMS-variant:
!!!SMS-altvar:
!!!NIFC-rismSourceID: 1001136550
!!!NIFC-rismChildID: 1001136550
!!!NIFC-islandoraID: pl-kk:14504
!!!URL-pdf-islandora: https://repozytorium.nifc.pl/islandora/object/pl-kk%3A14504/datastream/PDF/view
!!!URL-scan: https://polish.musicsources.pl/pl/lokalizacje/galeria/rekopisy/6095 @EN{Scan on Polish Music Sources Website} @PL{Skany w portalu Dziedzictwo Muzyki Polskiej w otwartym dostępie}
!!!IIIF:
!!!ONB-nifc:
!!!AIN: 1 alto 1 empty 1 soprn 1 tenor
!!!key:
**kern	**text	**dynam	**kern	**text	**dynam	**kern	**text	**dynam	**kern	**text	**dynam
*part4	*	*	*part3	*	*	*part2	*	*	*part1	*	*
*staff4	*	*	*staff3	*	*	*staff2	*	*	*staff1	*	*
*Iempty	*	*	*Itenor	*	*	*Ialto	*	*	*Isoprn	*	*
*I"Basſo	*	*	*I"Tenor	*	*	*I"Alto	*	*	*I"Soprano	*	*
*I'B	*	*	*I'T	*	*	*I'A	*	*	*I'S	*	*
*clefF4	*	*	*clefC4	*	*	*clefC3	*	*	*clefG2	*	*
*k[b-]	*	*	*k[b-]	*	*	*k[b-]	*	*	*k[b-]	*	*
*F:	*	*	*F:	*	*	*F:	*	*	*F:	*	*
*M4/4	*	*	*M4/4	*	*	*M4/4	*	*	*M4/4	*	*
*met(c)	*	*	*met(c)	*	*	*met(c)	*	*	*met(c)	*	*
=1	=1	=1	=1	=1	=1	=1	=1	=1	=1	=1	=1
*2\right	*	*	*2\right	*	*	*2\right	*	*	*	*	*below
!LO:TX:a:i:t=andante	!	!LO:DY:rj	!LO:TX:a:B:t=andante	!	!LO:DY:a:rj	!LO:TX:a:t=andante	!	!LO:DY:rj	!LO:TX:a:B:t=Andante	!	!LO:DY:rj
!LO:TX:a:i:t=Modlitwa z Psalmów Dawidowych	!	!	!LO:TX:a:B:t=Modlitwa z Psalmów Dawidowych	!	!	!LO:TX:a:B:t=Modlitwa Z psalmów Dawidowych	!	!	!LO:TX:a:B:t=Modlitwa Wyjęta z Psalmu Dawida,	!	!
2F\	I-	.	2c\	I-	p	2f\	I-	p	2a/	I-	p
4F\	-dziesz	.	4c\	-dziesz	.	4f\	-dziesz	.	4a/	-dziesz	.
4F\	ko-	.	4c\	ko-	.	4f\	ko-	.	4a/	ko-	.
=2	=2	=2	=2	=2	=2	=2	=2	=2	=2	=2	=2
2BB-/	-ło	.	2d\	-ło	.	2f\	-ło	.	2b-/	-ło	.
2F\	mnie	.	2c\	mnie	.	2f\	mnie	.	2a/	mnie	.
=3	=3	=3	=3	=3	=3	=3	=3	=3	=3	=3	=3
!	!	!	!	!	!LO:HP:a	!	!	!LO:HP:a	!	!	!
4C/	nie	.	4B-\	nie	<	4e\	nie	<	4g/	nie	.
!	!	!	!	!	!	!	!	!	!	!	!LO:HP:a
4C/	o-	.	4A\	o-	.	4d#X\	o-	.	4f#X/	o-	<
4C/	-mi-	.	4B-\	-mi-	.	4e\	-mi-	.	4g/	-mi-	.
4C/	-jaj	.	4B-\	-jaj	[[	4e\	-jaj	[[	4dd\	-jaj	.
=4	=4	=4	=4	=4	=4	=4	=4	=4	=4	=4	=4
!	!	!	!	!	!	!	!	!LO:DY:a:rj	!	!	!
2F\	Pa-	.	(4.B-\	Pa-	.	(4.e\	Pa-	f	(4.dd\	Pa-	[
.	.	.	8A\)	.	.	8f\)	.	.	8cc\)	.	.
4F\	-nie	.	4c\	-nie	.	4f\	-nie	.	4a/	-nie	.
4r	.	.	4r	.	.	4r	.	.	4r	.	.
!	!	!	!LO:LB:g=original	!	!	!	!	!	!	!	!
=5	=5	=5	=5	=5	=5	=5	=5	=5	=5	=5	=5
!	!	!	!	!	!	!	!	!LO:DY:a	!	!	!LO:DY:a
2D\	Nie	.	2A\	Nie	.	2f\	Nie	p	2a/	Nie	p
4D\	śmie	.	4A\	śmie	.	4f\	śmie	.	4a/	śmie	.
4D\	cię	.	4A\	cię	.	4f\	cię	.	4a/	cię	.
!LO:LB:g=original	!	!	!	!	!	!	!	!	!	!	!
=6	=6	=6	=6	=6	=6	=6	=6	=6	=6	=6	=6
(2C#X\	wzy-	.	2.A\	wzy-	.	2e\	wzy-	.	2.a/	wzy-	.
4D\)	.	.	.	.	.	2f\	-wać	.	.	.	.
4D\	-wać	.	4A\	-wać	.	.	.	.	4bn/	-wać	.
!	!	!	!	!	!	!	!	!	!LO:LB:g=original	!	!
=7	=7	=7	=7	=7	=7	=7	=7	=7	=7	=7	=7
4E\	grzesz-	.	4A\	grzesz-	.	4e\	grzesz-	.	4cc\	grzesz-	.
4E\	-ni-	.	4c\	-ni-	.	4e\	-ni-	.	4a/	-ni-	.
4E\	-ka	.	(8.d\L	-ka	.	(8.f\L	-ka	.	4a/	-ka	.
.	.	.	16c\Jk)	.	.	16e\Jk)	.	.	.	.	.
4E\	wo-	.	4Bn\	wo-	.	4d\	wo-	.	4g#X/	wo-	.
=8	=8	=8	=8	=8	=8	=8	=8	=8	=8	=8	=8
2AA/	-ła-	.	2A\	-ła-	.	2c\	-ła-	.	2a/	-ła-	.
2C/	-nie	.	2B-X\	-nie	.	2e\	-nie	.	(4g/	-nie	.
.	.	.	.	.	.	.	.	.	4cc\)	.	.
=9	=9	=9	=9	=9	=9	=9	=9	=9	=9	=9	=9
2F\	Dro-	.	2c\	Dro-	.	2f\	Dro-	.	2a/	Dro-	.
4F\	-gem	.	4c\	-gem	.	4f\	-gem	.	4a/	-gem	.
4F\	ci	.	4c\	ci	.	4f\	ci	.	4a/	ci	.
=10	=10	=10	=10	=10	=10	=10	=10	=10	=10	=10	=10
*	*	*	*	*	*	*	*	*	*2\right	*	*
2BB-/	za-	.	2d\	za-	.	2f\	za-	.	2b-\	za-	.
2F\	-biegł	.	2c\	-biegł	.	2f\	-biegł	.	2a\	-biegł	.
!LO:LB:g=original	!	!	!LO:LB:g=original	!	!	!	!	!	!	!	!
=11	=11	=11	=11	=11	=11	=11	=11	=11	=11	=11	=11
4C/	łez	.	4B-\	łez	.	4e\	łez	.	4g/	łez	.
4C/	po-	.	4A\	po-	.	4d#X\	po-	.	4f#X/	po-	.
4C/	-kor-	.	4B-\	-kor-	.	4e\	-kor-	.	4g/	-kor-	.
4C/	-nych	.	4B-\	-nych	.	4e\	-nych	.	4dd\	-nych	.
!	!	!	!	!	!	!LO:LB:g=original	!	!	!	!	!
=12	=12	=12	=12	=12	=12	=12	=12	=12	=12	=12	=12
2F\	zdro-	.	(4.B-\	zdro-	.	(4.e\	zdro-	.	(4.dd\	zdro-	.
.	.	.	8A\)	.	.	8f\)	.	.	8cc\)	.	.
4F\	-jem	.	4c\	-jem	.	4f\	-jem	.	4a\	-jem	.
4r	.	.	4r	.	.	4r	.	.	4r	.	.
!	!	!	!	!	!	!	!	!	!LO:LB:g=original	!	!
=13	=13	=13	=13	=13	=13	=13	=13	=13	=13	=13	=13
!	!	!	!	!	!LO:HP:a	!	!	!	!	!	!LO:HP:a
2F\	zli-	.	2c\	zli-	<	2f\	zli-	.	2a/	zli-	<
4F\	-tuj	.	4c\	-tuj	.	4f\	-tuj	.	4a/	-tuj	.
4F\	sie	.	4c\	sie	.	4f\	sie	.	4a/	sie	.
=14	=14	=14	=14	=14	=14	=14	=14	=14	=14	=14	=14
!	!	!	!	!	!	!	!	!LO:HP:a	!	!	!
(2G\	Pa-	.	2c\	Pa-	[	2e\	Pa-	<	2g/	Pa-	[
4E\)	.	.	2c\	-nie	.	2g\	-nie	.	2ee\	-nie	.
4C\	-nie	.	.	.	.	.	.	[	.	.	.
!LO:LB:g=original	!	!	!	!	!	!	!	!	!	!	!
=15	=15	=15	=15	=15	=15	=15	=15	=15	=15	=15	=15
!	!	!	!	!	!LO:DY:rj	!	!	!LO:DY:a:rj	!	!	!LO:DY:rj
4GG/	nad	.	4Bn\	nad	f	4g\	nad	f	4ee\	nad	f
4G\	nie-	.	4B\	nie-	.	4g\	nie-	.	4ee\	nie-	.
4G\	-szczę-	.	4B\	-szczę-	.	4.f\	-szczę-	.	4.dd\	-szczę-	.
4G\	-sciem	.	4B\	-ściem	.	.	.	.	.	.	.
.	.	.	.	.	.	8g\	-ściem	.	8ee\	-ściem	.
!	!	!	!LO:LB:g=original	!	!	!	!	!	!	!	!
=16	=16	=16	=16	=16	=16	=16	=16	=16	=16	=16	=16
2GG/	mo-	.	(2Bn\	mo-	.	2f\	mo-	.	2dd\	mo-	.
4C/	-jem	.	4c\)	-jem	.	4e\	-jem	.	4cc\	-jem	.
4r	.	.	4r	.	.	4r	.	.	4r	.	.
=17	=17	=17	=17	=17	=17	=17	=17	=17	=17	=17	=17
!LO:TX:a:t=1	!	!	!	!	!LO:DY:rj	!LO:TX:a:t=1	!	!	!	!	!LO:DY:rj
1r	.	.	2c\	Gdym	p	1r	.	.	2cc\	Gdym	p
.	.	.	4c\	u-	.	.	.	.	4cc\	u-	.
.	.	.	4c\	-padł	.	.	.	.	4cc\	-padł	.
!	!	!	!	!	!	!LO:LB:g=original	!	!	!	!	!
=18	=18	=18	=18	=18	=18	=18	=18	=18	=18	=18	=18
!	!	!	!	!	!	!	!	!LO:DY:rj	!	!	!
4r	.	.	2.c\	w grze-	.	4r	.	p	2.cc\	w grze-	.
!	!	!	!	!	!	!	!	!LO:DY:a	!	!	!
4C\	Gdym	.	.	.	.	4e\	Gdym	p	.	.	.
4E\	u-	.	.	.	.	4g\	u-	.	.	.	.
4D\	-padł	.	4c\	-chu	.	4f\	-padł	.	4cc\	-chu	.
!	!	!	!	!	!	!	!	!	!LO:LB:g=original	!	!
=19	=19	=19	=19	=19	=19	=19	=19	=19	=19	=19	=19
4F\	w grze-	.	4c\	te	.	4a\	w grze-	.	4cc\	te	.
4E\	-chu	.	4c\	prze-	.	4g\	-chu	.	4cc\	prze-	.
4r	.	.	4c\	-paść	.	4r	.	.	4cc\	-paść	.
4r	.	.	4c\	głę-	.	4r	.	.	4cc\	głę-	.
!LO:LB:g=original	!	!	!	!	!	!	!	!	!	!	!
=20	=20	=20	=20	=20	=20	=20	=20	=20	=20	=20	=20
4r	.	.	1c	-bo-	.	4r	.	.	1cc	-bo-	.
4E\	prze-	.	.	.	.	4g\	prze-	.	.	.	.
4G\	-paść	.	.	.	.	4b-\	-paść	.	.	.	.
4F\	głę-	.	.	.	.	4a\	głę-	.	.	.	.
=21	=21	=21	=21	=21	=21	=21	=21	=21	=21	=21	=21
4A\	-bo-	.	4c\	-ko	.	4cc\	-bo-	.	4cc\	-ko	.
4G\	-ką	.	4c\	Jak-	.	4b-\	-ko	.	4cc\	Jak-	.
4r	.	.	4d-X\	-że	.	4r	.	.	4dd-X\	-że	.
4r	.	.	4d-\	zło-	.	4r	.	.	4dd-\	zło-	.
!	!	!	!LO:LB:g=original	!	!	!	!	!	!	!	!
=22	=22	=22	=22	=22	=22	=22	=22	=22	=22	=22	=22
4r	.	.	2.d-X\	-śli-	.	4r	.	.	2.dd-X\	-sli-	.
4G\	Jak-	.	.	.	.	4b-\	Jak-	.	.	.	.
4G\	-że	.	.	.	.	4b-\	-że	.	.	.	.
4F\	zło-	.	4d-\	-wych	.	4a-X\	zło-	.	4dd-\	-wych	.
!	!	!	!	!	!	!LO:LB:g=original	!	!	!	!	!
=23	=23	=23	=23	=23	=23	=23	=23	=23	=23	=23	=23
4E\	-sli-	.	4d-X\	cie-	.	4g\	-śli-	.	4dd-X\	cie-	.
4E\	-wych	.	4c\	szy-	.	4g\	-wych	.	4cc\	szy-	.
4r	.	.	4d-\	-ło	.	4r	.	.	4dd-\	-ło	.
4r	.	.	4d-\	się	.	4r	.	.	4dd-\	się	.
!LO:LB:g=original	!	!	!	!	!	!	!	!	!	!	!
=24	=24	=24	=24	=24	=24	=24	=24	=24	=24	=24	=24
4G\	cie-	.	[1d-X	o-	.	4b-X\	cie-	.	[1dd-X	o-	.
4G\	-szy-	.	.	.	.	4b-\	-szy-	.	.	.	.
4G\	-ło	.	.	.	.	4b-\	-ło	.	.	.	.
4F\	się	.	.	.	.	4a-X\	się	.	.	.	.
!	!	!	!	!	!	!	!	!	!LO:LB:g=original	!	!
=25	=25	=25	=25	=25	=25	=25	=25	=25	=25	=25	=25
2E-X\	o-	.	2d-X\]	.	.	4g\	o-	.	2dd-X\]	.	.
.	.	.	.	.	.	4g\	-ko,	.	.	.	.
2E-\	-ko	.	2B-\	-ko	.	4r	.	.	2dd-\	-ko	.
.	.	.	.	.	.	4r	.	.	.	.	.
.	.	.	.	.	.	.	.	f	.	.	.
=26	=26	=26	=26	=26	=26	=26	=26	=26	=26	=26	=26
!	!	!	!	!	!LO:DY:rj	!	!	!	!	!	!LO:DY:a:rj
2AA-X/	o-	.	2A-X\	o-	f	2e-X\	o-	.	2cc\	o-	f
4AA-/	-tóż	.	4A-\	-tóż	.	4d\	-tóż	.	4bn\	-tóż	.
4AA-/	to	.	4A-\	to	.	4e-\	to	.	4cc\	to	.
=27	=27	=27	=27	=27	=27	=27	=27	=27	=27	=27	=27
2D-X\	rze-	.	(4An\	rze-	.	(4g-X\	rze-	.	(4ee-X\	rze-	.
.	.	.	4B-\)	.	.	4f\)	.	.	4dd-X\)	.	.
2D-\	-kli	.	(4c\	-kli	.	(4e-X\	-kli	.	(4cc\	-kli	.
.	.	.	4d-X\)	.	.	4f\)	.	.	4b-\)	.	.
!LO:LB:g=original	!	!	!LO:LB:g=original	!	!	!LO:LB:g=original	!	!	!	!	!
=28	=28	=28	=28	=28	=28	=28	=28	=28	=28	=28	=28
4E-X\	jak	.	4c\	jak	.	4e-X\	jak	.	4a-X/	jak	.
4E-\	on	.	4Bn\	on	.	4d\	on	.	4a-/	on	.
!	!	!	!LO:TX:a:t=||	!	!	!LO:TX:a:t=||	!	!	!	!	!
4E-\	dru-	.	2B-X\	drugich	.	2d-X\	drugich	.	4a-/	dru-	.
4E-\	-gich	.	.	.	.	.	.	.	4g/	-gich	.
=29	=29	=29	=29	=29	=29	=29	=29	=29	=29	=29	=29
2AA-X/	wi-	.	2A-X\	wi-	.	2c\	wi-	.	2a-X/	wi-	.
4AA-/	-nił	.	4A-\	-nił	.	4c\	-nił	.	4a-/	-nił	.
4r	.	.	4r	.	.	4r	.	.	4r	.	.
!	!	!	!	!	!	!	!	!	!LO:LB:g=original	!	!
=30	=30	=30	=30	=30	=30	=30	=30	=30	=30	=30	=30
!	!	!	!	!	!LO:DY:rj	!	!	!LO:DY:a	!	!	!
1AA-X	a	.	1A-X	a	p	4r	.	p	4r	.	p
.	.	.	.	.	.	4a-X\	a	.	4cc\	a	.
.	.	.	.	.	.	4f\	te-	.	4a-X/	te-	.
.	.	.	.	.	.	4d-X\	-raz	.	4f/	-raz	.
=31	=31	=31	=31	=31	=31	=31	=31	=31	=31	=31	=31
4AA-X/	te-	.	4A-X/	te-	.	4c\	patrz-	.	4e-X/	patrz-	.
(8.GG/L	-raz	.	(8.G/L	-raz	.	4c\	-cie	.	4e-/	-cie	.
16AA-/Jk)	.	.	16A-/Jk)	.	.	.	.	.	.	.	.
4AA-/	patrz-	.	4A-/	patrz-	.	4r	.	.	4r	.	.
4AA-/	-cie	.	4A-/	-cie	.	4r	.	.	4r	.	.
!LO:LB:g=original	!	!	!	!	!	!	!	!	!	!	!
=32	=32	=32	=32	=32	=32	=32	=32	=32	=32	=32	=32
1AA-X	co	.	1A-X	co	.	4r	.	.	4r	.	.
.	.	.	.	.	.	4a-X\	co	.	4cc\	co	.
.	.	.	.	.	.	(8g\L	sam	.	(8b-/L	sam	.
.	.	.	.	.	.	8f\J)	.	.	8a-X/J)	.	.
.	.	.	.	.	.	(8e-X\L	u-	.	(8g/L	u-	.
.	.	.	.	.	.	8d-X\J)	.	.	8f/J)	.	.
!	!	!	!	!	!	!LO:LB:g=original	!	!	!	!	!
=33	=33	=33	=33	=33	=33	=33	=33	=33	=33	=33	=33
4AA-X/	sam	.	4A-X\	sam	.	4c\	-czy-	.	4e-X/	-czy-	.
(8.GG/L	u-	.	(8.G/L	u-	.	4c\	-nił	.	4e-/	-nił	.
16AA-/Jk)	.	.	16A-/Jk)	.	.	.	.	.	.	.	.
4C/	-czy-	.	4c\	-czy-	.	4r	.	.	4r	.	.
4C/	-nił	.	4c\	-nił	.	4r	.	.	4r	.	.
!	!	!	!LO:LB:g=original	!	!	!	!	!	!	!	!
=34	=34	=34	=34	=34	=34	=34	=34	=34	=34	=34	=34
2.C/	tak	.	2.c\	tak	.	4r	.	.	4r	.	.
.	.	.	.	.	.	4en\	szy-	.	4cc\	szy-	.
.	.	.	.	.	.	4g\	-dzi-	.	4b-\	-dzi-	.
4C/	szy-	.	4Bn\	szy-	.	4f\	-li	.	4a-X\	-li	.
!	!	!	!	!	!	!	!	!	!LO:LB:g=original	!	!
=35	=35	=35	=35	=35	=35	=35	=35	=35	=35	=35	=35
4C/	-dzi-	.	4c\	-dzi-	.	4e\	głoś-	.	4g/	głoś-	.
(8.D-X/L	-li	.	(8.d-X\L	-li	.	4e\	-no	.	4g/	-no	.
16C/Jk)	.	.	16c\Jk)	.	.	.	.	.	.	.	.
4C/	głoś-	.	4c\	głoś-	.	4r	.	.	4r	.	.
4C/	-no	.	4c\	-no	.	4r	.	.	4r	.	.
=36	=36	=36	=36	=36	=36	=36	=36	=36	=36	=36	=36
2C/	jam	.	2c\	jam	.	4r	.	.	4r	.	.
.	.	.	.	.	.	4e\	zno-	.	4cc\	zno-	.
4C/	zno-	.	4c\	zno-	.	4g\	-sił	.	4b-X\	-sił	.
4C/	-sił	.	4Bn\	-sił	.	4f\	cier-	.	4a-X\	cier-	.
!LO:LB:g=original	!	!	!	!	!	!	!	!	!	!	!
=37	=37	=37	=37	=37	=37	=37	=37	=37	=37	=37	=37
2C/	cier-	.	2c\	cier-	.	4e\	-pli-	.	4g/	-pli-	.
.	.	.	.	.	.	4e\	-wie	.	4g/	-wie	.
4C/	-pli-	.	4c\	-pli-	.	4r	.	.	4r	.	.
4C/	-wie	.	4c\	-wie	.	4r	.	.	4r	.	.
!	!	!	!	!	!	!LO:LB:g=original	!	!	!	!	!
=38	=38	=38	=38	=38	=38	=38	=38	=38	=38	=38	=38
2.C/	zna-	.	2.c\	zna-	.	4r	.	.	4r	.	.
.	.	.	.	.	.	4G/	zna-	.	4e/	zna-	.
.	.	.	.	.	.	4B-/	-łem	.	4g/	-łem	.
4C/	-łem	.	4c\	-łem	.	4A/	że	.	4f/	że	.
!	!	!	!LO:LB:g=original	!	!	!	!	!	!	!	!
=39	=39	=39	=39	=39	=39	=39	=39	=39	=39	=39	=39
2C/	że	.	(4c\	że	.	2c\	ka-	.	(4a/	ka-	.
.	.	.	4B-\)	.	.	.	.	.	4g/)	.	.
4C/	ka-	.	4d\	ka-	.	2c\	-rzesz	.	(4b-\	-rzesz	.
4C/	-rzesz	.	4c\	-rzesz	.	.	.	.	4a\)	.	.
!	!	!	!	!	!	!	!	!	!LO:LB:g=original	!	!
=40	=40	=40	=40	=40	=40	=40	=40	=40	=40	=40	=40
4C/	pa-	.	4e\	pa-	.	4c\	pa-	.	4cc\	Pa-	.
4C/	-nie	.	4B-\	-nie	.	4c\	-nie	.	4g/	-nie	.
4C/	spra-	.	4d\	spra-	.	4c\	spra-	.	4b-\	spra-	.
4C/	-wie-	.	4A\	-wie-	.	4c\	-wie-	.	4f/	-wie-	.
=41	=41	=41	=41	=41	=41	=41	=41	=41	=41	=41	=41
2C/	-dli-	.	(4c\	-dli-	.	2c\	-dli-	.	(4a/	-dli-	.
.	.	.	4G\)	.	.	.	.	.	4e/)	.	.
4C/	-wie	.	4B-\	-wie	.	4c\	-wie	.	(4g/	-wie	.
!	!	!	!	!	!	!LO:TX:b:t=WS	!	!	!	!	!
4r	.	.	4r	.	.	4r	.	.	4cc\)	.	.
!LO:PB:g=original	!	!	!	!	!	!LO:PB:g=original	!	!	!	!	!
=42	=42	=42	=42	=42	=42	=42	=42	=42	=42	=42	=42
2F\	zna-	.	2c\	zna-	.	2f\	zna-	.	2a/	zna-	.
4F\	-łem	.	4c\	-łem	.	4f\	-łem	.	4a/	-łem	.
4F\	gdy	.	4c\	gdy	.	4f\	gdy	.	4a/	gdy	.
=43	=43	=43	=43	=43	=43	=43	=43	=43	=43	=43	=43
2BB-/	mil-	.	2d\	mil-	.	2f\	mil-	.	2b-\	mil-	.
2F\	-cze	.	2c\	-cze	.	2f\	-cze	.	2a\	-cze	.
!	!	!	!LO:LB:g=original	!	!	!	!	!	!	!	!
=44	=44	=44	=44	=44	=44	=44	=44	=44	=44	=44	=44
4C/	gdy	.	4B-\	gdy	.	4e\	gdy	.	4g/	gdy	.
4C/	znio-	.	4A\	znio-	.	4d#X\	znio-	.	4f#X/	znio-	.
4C/	-sę	.	4B-\	-sę	.	4e\	-sę	.	4g/	-sę	.
4C/	w po-	.	4B-\	w po-	.	4e\	w po-	.	4dd\	w po-	.
=45	=45	=45	=45	=45	=45	=45	=45	=45	=45	=45	=45
2F\	-ko-	.	(4.B-\	-ko-	.	(4.e\	-ko-	.	(4.dd\	-ko-	.
.	.	.	8A\)	.	.	8f\)	.	.	8cc\)	.	.
(4F\	-rzę	.	4c\	-rze	.	4f\	-rze	.	4a\	-rze	.
4E\)	.	.	4r	.	.	4r	.	.	4r	.	.
!LO:LB:g=original	!	!	!	!	!	!	!	!	!LO:PB:g=original	!	!
=46	=46	=46	=46	=46	=46	=46	=46	=46	=46	=46	=46
2D\	Wej-	.	2A\	Wej-	.	2f\	Wej-	.	2a/	Wej-	.
4D\	-żysz	.	4A\	-żysz	.	4f\	-żysz	.	4a/	-żyj	.
4D\	ty	.	4A\	ty	.	4f\	ty	.	4a/	ty	.
!	!	!	!	!	!	!LO:LB:g=original	!	!	!	!	!
=47	=47	=47	=47	=47	=47	=47	=47	=47	=47	=47	=47
2C#X\	na	.	2A\	na	.	2e\	na	.	2a/	na	.
2D\	mnie	.	2A\	mnie	.	2f\	mnie	.	(4a/	mnie	.
!	!	!	!LO:TX:b:t=V S	!	!	!	!	!	!	!	!
.	.	.	.	.	.	.	.	.	4bn/)	.	.
!	!	!	!LO:PB:g=original	!	!	!	!	!	!	!	!
=48	=48	=48	=48	=48	=48	=48	=48	=48	=48	=48	=48
!	!	!	!	!	!LO:DY:a:rj	!	!	!	!	!	!LO:DY:a:t=for
4E\	nie	.	4A\	nie	f	4e\	nie	.	4cc\	nie	f
4E\	o-	.	4c\	o-	.	4e\	o-	.	4a/	o-	.
4E\	-puś-	.	(8.d\L	-pusz-	.	(8.f\L	-pusz-	.	4a/	-puś-	.
.	.	.	16c\Jk)	.	.	16e\Jk)	.	.	.	.	.
4E\	-cisz	.	4Bn\	-cisz	.	4c\	-cisz	.	4g#X/	-cisz	.
=49	=49	=49	=49	=49	=49	=49	=49	=49	=49	=49	=49
2AA/	Bo-	.	2A\	Bo-	.	2c\	Bo-	.	2a/	Bo-	.
2C/	-że	.	2B-X\	-że	.	2e\	-że	.	(4gn/	-że	.
.	.	.	.	.	.	.	.	.	4cc/)	.	.
!LO:LB:g=original	!	!	!	!	!	!	!	!	!	!	!
=50	=50	=50	=50	=50	=50	=50	=50	=50	=50	=50	=50
!	!	!	!	!	!LO:DY:a	!	!	!	!	!	!LO:DY:a
2F\	w li-	.	2c\	w li-	p	2f\	w li-	.	2a/	w li-	p
4F\	-toś-	.	4c\	-toś-	.	4f\	-toś-	.	4a/	-toś-	.
4F\	-ci	.	4c\	-ci	.	4f\	-ci	.	4a/	-ci	.
=51	=51	=51	=51	=51	=51	=51	=51	=51	=51	=51	=51
2BB-/	two-	.	2d\	two-	.	2f\	two-	.	2b-\	two-	.
2F\	-jej	.	2c\	-jej	.	2f\	-jej	.	2a\	-jej	.
!	!	!	!	!	!	!LO:LB:g=original	!	!	!LO:LB:g=original	!	!
=52	=52	=52	=52	=52	=52	=52	=52	=52	=52	=52	=52
2C/	wszyst-	.	(4B-\	wszyst-	.	(4e\	wszyst-	.	(4g/	wszyst-	.
.	.	.	4A\)	.	.	4d#X\)	.	.	4f#X/)	.	.
4C/	-kie	.	4B-\	-kie	.	4e\	-kie	.	4g/	-kie	.
4C/	na-	.	4B-\	na-	.	4e\	na-	.	4dd\	na-	.
!	!	!	!LO:LB:g=original	!	!	!	!	!	!	!	!
=53	=53	=53	=53	=53	=53	=53	=53	=53	=53	=53	=53
2F\	-dzie-	.	(4.B-\	-dzie-	.	(4.e\	-dzie-	.	(4.dd\	-dzie-	.
.	.	.	8A\)	.	.	8f\)	.	.	8cc\)	.	.
4F\	-je	.	4c\	-je	.	4f\	-je	.	4a/	-je	.
4r	.	.	4r	.	.	4r	.	.	4r	.	.
!LO:LB:g=original	!	!	!	!	!	!	!	!	!	!	!
=54	=54	=54	=54	=54	=54	=54	=54	=54	=54	=54	=54
!	!	!	!	!	!	!	!	!	!	!	!LO:HP:a
2F\	Przyjm	.	2c\	Przyjm	.	2f\	Przyjm	.	2a/	Przyjm	<
4F\	gdziesz	.	4G\	gdziesz	.	4e\	gdziesz	.	4b-/	gdziesz	.
4F\	sie	.	4A\	sie	.	4e-X\	sie	.	4cc\	sie	[[
=55	=55	=55	=55	=55	=55	=55	=55	=55	=55	=55	=55
!	!	!	!	!	!	!	!	!	!	!	!LO:DY:a:rj
4B-\	daw-	.	(4B-\	daw-	.	(4d\	daw-	.	(4dd\	daw-	f
4c#X\	.	.	4g\)	.	.	4b-\)	.	.	4ee\)	.	.
4d\	.	.	2f\	-ny	.	(4a\	-ny	.	(4ff\	-ny	.
4Bn\	-ny	.	.	.	.	4a-X\)	.	.	4dd\)	.	.
!	!	!	!	!	!	!LO:LB:g=original	!	!	!	!	!
=56	=56	=56	=56	=56	=56	=56	=56	=56	=56	=56	=56
4c\	słu-	.	4f\	słu-	.	4a\	słu-	.	4cc\	słu-	.
4C/	-ga	.	8.c\L	-ga	.	4f\	-ga	.	8.a/L	-ga	.
.	.	.	16d\Jk	.	.	.	.	.	16b-/Jk	.	.
4C/	twój	.	4c\	twój	.	4e\	twój	.	4a/	twój	.
4C/	po-	.	4B-\	po-	.	4e\	po-	.	4g/	po-	.
!	!	!	!LO:LB:g=original	!	!	!	!	!	!LO:LB:g=original	!	!
=57	=57	=57	=57	=57	=57	=57	=57	=57	=57	=57	=57
4F\	-dzie-	.	4A\	-dzie-	.	4f\	-dzie-	.	4f/	-dzie-	.
4F\	-je	.	4A\	-je	.	4f\	-je	.	4f/	-je	.
!	!	!	!	!	!	!	!	!	!	!	!LO:DY:a
4r	.	.	4r	.	.	4d\	gdziesz	.	4dd\	gdziesz	p
4r	.	.	4r	.	.	4c\	sie	.	4cc\	sie	.
!LO:LB:g=original	!	!	!	!	!	!	!	!	!	!	!
=58	=58	=58	=58	=58	=58	=58	=58	=58	=58	=58	=58
4r	.	.	4r	.	.	4c\	gdziesz	.	(4cc\	gdziesz	.
4C/	gdziesz	.	4c\	gdziesz	.	4f\	.	.	4a\)	.	.
4C/	się	.	4Bn\	się	.	4f\	sie	.	4g/	sie	.
4C/	po-	.	4B-X\	po-	.	4e\	po-	.	4cc\	po-	.
=59	=59	=59	=59	=59	=59	=59	=59	=59	=59	=59	=59
4F\	-dzie-	.	4A\	-dzie-	.	4f\	-dzie-	.	4a/	-dzie-	.
!	!	!LO:DY:a	!	!	!	!	!	!	!	!	!
4F\	-je	f	4A\	-je	.	4f\	-je	.	4f/	-je	.
4D\	gdzie	.	4d\	gdzie	.	4r	.	.	4r	.	.
4C\	się	.	4c\	się	.	4r	.	.	4r	.	.
!	!	!	!	!	!	!LO:LB:g=original	!	!	!	!	!
=60	=60	=60	=60	=60	=60	=60	=60	=60	=60	=60	=60
2C\	gdzie	.	(4c\	gdzie	.	4r	.	.	4r	.	.
.	.	.	4A\)	.	.	4c\	gdzie	.	4f/	gdzie	.
2C\	po-	.	2B-\	po-	.	4e\	się	.	4g/	się	.
.	.	.	.	.	.	4e\	po-	.	4a/	po-	.
!	!	!	!LO:LB:g=original	!	!	!	!	!	!	!	!
=61	=61	=61	=61	=61	=61	=61	=61	=61	=61	=61	=61
4F\	-dzie-	.	4A\	-dzie-	.	4c\	-dzie-	.	4f/	-dzie-	.
4F\	-ję	.	4A\	-je	.	4c\	-je	.	4f/	-je	.
4r	.	.	4r	.	.	4r	.	.	4r	.	.
4BB-/	tak	.	4d\	tak	.	4f\	tak	.	4b-\	tak	.
!LO:LB:g=original	!	!	!	!	!	!	!	!	!LO:LB:g=original	!	!
=62	=62	=62	=62	=62	=62	=62	=62	=62	=62	=62	=62
2F\	gdzie	.	2c\	gdzie	.	2f\	gdzie	.	2a/	gdzie	.
4F\	się	.	4c\	się	.	4f\	się	.	4a/	się	.
4BB-/	po-	.	4d\	po-	.	4f\	po-	.	4b-/	po-	.
=63	=63	=63	=63	=63	=63	=63	=63	=63	=63	=63	=63
2.F\	-dzie-	.	(2.c\	-dzie-	.	2.f\	-dzie-	.	(2.a/	-dzie-	.
4FF/	.	.	4A\)	.	.	4c\	.	.	4f/)	.	.
=64	=64	=64	=64	=64	=64	=64	=64	=64	=64	=64	=64
!	!	!	!	!	!	!	!	!LO:HP:a	!	!	!LO:HP:a
1FF	-je	.	1A	-je.	.	1c	-je.	<	1f	-je.	<
.	.	.	.	.	.	.	.	[	.	.	[
!	!	!	!	!	!	!	!	!LO:HP:a	!	!	!LO:HP:a
.	.	.	.	.	.	.	.	>	.	.	>
.	.	.	.	.	.	.	.	]	.	.	]
==	==	==	==	==	==	==	==	==	==	==	==
*-	*-	*-	*-	*-	*-	*-	*-	*-	*-	*-	*-
!!!system-decoration: [(s1,s2,s3,s4)]
!!!ENC: Marta Lawrence
!!!END: 2021-01-16
!!!ENC: Tomasz Grochalski
!!!END: 2021-01-10
